!!!OTL: Yaogong shiertan
!!!ARE: Asia, China,ÿHebei Tangshan
!! IV, 52
!!!SCT: C1929
!!!YEM: Copyright 1995, estate of Helmut Schaffrath.
**kern
*ICvox
*Ivox
*M2/4
*k[b-]
*F:
{8a
8g
8a
8cc
=1
8.dd
16ff
8dd
8cc
=2
4a
8g
8d
=3
2f}
=4
{8a
8g
8a
8cc
=5
8.dd
16ff
8dd
8cc
=6
4a
8g
8d
=7
2f}
=8
{4a
8a
8cc
=9
8.dd
16ff
8dd
8cc
=10
8dd
8ff
8dd
8cc
=11
8dd
8cc
4a}
=12
{4a
8a
8cc
=13
8.dd
16ff
8dd
8cc
=14
8cc
4a
8dd
=15
4cc
4cc}
=16
{8cc
8a
8cc
8dd
=17
4a
4a
=18
8cc
8a
8cc
8dd
=19
4a
4a}
=20
{8g
8g
4a
=21
8g
8g
4a
=22
8g
8f
8d
8f
=23
2g}
==
!!!AGN: Xiaodiao, Guanggunsiqi
!!!AMT: simple duple
!!!AIN: vox
!!!EED: Helmut Schaffrath
!!!EEV: 1.0
*-
